X:426
M:C
L:1/8
K:C
E>FG>F E>cG>c|E<c G>E F<D D>F|E>FG>E G>A d>f|e<c G>B c<CC||
e/f/|g>ec>e g>ag>e|f>d ed/c/ B>dde/f/|g>ec>e g>ag>e|f>dg>G A>cce/f/|
g>ec>e g>ag>e|f>d ed/c/ B<d d>f|e>g G>E F>d F>D|B>cd>f e<cc||

